modules/themify-icons/icons/crown.svg

<?xml version="1.0" encoding="utf-8"?>
<!-- Generated by IcoMoon.io -->
<!DOCTYPE svg PUBLIC "-//W3C//DTD SVG 1.1//EN" "http://www.w3.org/Graphics/SVG/1.1/DTD/svg11.dtd">
<svg version="1.1" xmlns="http://www.w3.org/2000/svg" xmlns:xlink="http://www.w3.org/1999/xlink" width="17" height="17" viewBox="0 0 17 17">
<g>
</g>
	<path d="M12.626 6.743l-4.083-6.673-4.211 6.675-4.499-3.833 1.739 13.088h13.855l1.738-13.075-4.539 3.818zM2.447 15l-0.133-1h12.371l-0.133 1h-12.105zM14.818 13h-12.636l-1.015-7.637 3.396 2.892 3.967-6.29 3.851 6.292 3.454-2.906-1.017 7.649z" fill="#000000" />
</svg>

<svg xmlns="http://www.w3.org/2000/svg" width="17" height="17"><path d="M12.626 6.743L8.543.07 4.332 6.745-.167 2.912 1.572 16h13.855l1.738-13.075-4.539 3.818zM2.447 15l-.133-1h12.371l-.133 1H2.447zm12.371-2H2.182L1.167 5.363l3.396 2.892 3.967-6.29 3.851 6.292 3.454-2.906L14.818 13z"/></svg>
